X:20
T:Wie wil er mee naar Wieringen varen
M:3/4                           % type of bar  4/4 or 3/4
L:1/4                           % length of shortest note
Q:                           %tempo  Q:1/4=80
K:A     % transposed from G
V:1
"E"BBB|"E"B2 e | "E"d2 c| "E"c2B |"E"BBB| "E" B2 e| "E"ddc| "E"c2 B|
"A"A2 A|"D"A2 A|"D"AGF| "A"E2 E | "F#m"AAA| "Bm"BBB|"E"ccB| "A"A3||
V:2
BBA|A2 G | B2 A| A2 G|BBA|A2 G| BBA | A2 G|
A2E|F2F  |FEF  | G2 G|FFF| FFF| EFG| A3||
V:3
EEE|E2 E|E2 E|E2 E|EEE|E2 E|EEE|E2D|
C2C|D2D|DED|C2 C|CCC|DDD|EEE|A3||
W:
W:Wie wil er mee naar Wieringen varen
W:'s Morgens vroeg al in de dauw
W:Met een mooi meisje van achttien jaren
W:Dat zo graag naar Wieringen wou.
W:
W:refrein
W:Schipper ik hoor de hanen kraaien
W:Schipper ik zie de vlaggetjes waaien
W:Stuurman laat je roer maar gaan
W:Dan zullen we spoedig op Wieringen staan
W:
W:Als wij dan straks op Wieringen komen
W:Zien wij zoveel boeren daar staan
W:Die er het spek bij lepels vol eten
W:Je zou er wel om naar Wieringen gaan
W:
W:refrein
W:
W:Straks in de herberg 'T Vergulde Poortje
W:Daar verkopen ze brandewijn
W:Een potje vol al om een oortje
W:Suiker en kaneel erbij
W:
W:refrein









